img/socials/telegram.svg

<svg width="31" height="30" viewBox="0 0 31 30" fill="none" xmlns="http://www.w3.org/2000/svg">
<path d="M15.1469 20.5144C14.9556 20.6884 14.7643 20.861 14.5758 21.0345C14.1353 21.4363 13.7024 21.8471 13.2513 22.2368C12.995 22.4583 12.6826 22.5125 12.3469 22.443C12.003 22.3716 11.8078 22.1338 11.6553 21.8452C11.5161 21.581 11.4386 21.2943 11.3515 21.011C11.0432 20.0053 10.7349 18.9986 10.4265 17.9909C10.3786 17.8293 10.326 17.6683 10.2787 17.5058C10.2746 17.487 10.2653 17.4697 10.252 17.4559C10.2387 17.4421 10.2217 17.4322 10.2031 17.4276C9.27994 17.1205 8.35726 16.8098 7.43509 16.4957C7.23059 16.4317 7.03 16.3559 6.83431 16.2684C6.545 16.1387 6.30479 15.9194 6.1489 15.6428C5.87961 15.1514 5.9815 14.5958 6.4067 14.2272C6.57829 14.0816 6.7721 13.9646 6.98069 13.8806L9.53297 12.8053C10.7861 12.277 12.0388 11.7482 13.2911 11.219C14.9757 10.5076 16.6605 9.79601 18.3454 9.08424C19.3094 8.67778 20.2741 8.27347 21.2397 7.87141C21.4805 7.76343 21.7421 7.70991 22.0059 7.71464C22.2655 7.72749 22.5137 7.82505 22.7127 7.99243C22.9118 8.15982 23.0508 8.38787 23.1085 8.64178C23.1673 8.91024 23.1434 9.17535 23.0913 9.4409C22.9815 9.99701 22.8728 10.5536 22.765 11.1107L22.4436 12.7612C22.3088 13.4518 22.1741 14.1423 22.0399 14.8327C21.9181 15.4562 21.7961 16.0794 21.674 16.7023C21.5449 17.3667 21.4161 18.0314 21.2875 18.6966C21.1395 19.4537 20.9916 20.211 20.8437 20.9684C20.7719 21.3351 20.703 21.7023 20.6279 22.0686C20.5882 22.2632 20.4768 22.4234 20.3562 22.5748C19.9932 23.0317 19.5072 23.1884 18.9457 23.1319C18.7821 23.1156 18.6229 23.0561 18.4617 23.0139C18.3435 22.9832 18.2555 22.9004 18.1617 22.8284L15.1871 20.5403C15.1751 20.5331 15.1623 20.525 15.1469 20.5144ZM15.0723 18.7915C15.0967 18.8097 15.1144 18.8222 15.1317 18.8356L16.7943 20.1132C17.5018 20.6564 18.2101 21.1998 18.9189 21.7431C18.9873 21.7897 19.0647 21.8216 19.1461 21.8366C19.2456 21.8586 19.3427 21.7771 19.3628 21.6726C19.4432 21.2571 19.5238 20.8428 19.6048 20.4296C19.7913 19.4737 19.9784 18.5179 20.1659 17.5623C20.3543 16.5956 20.5425 15.6288 20.7303 14.662L21.1694 12.416C21.3703 11.3847 21.5709 10.3532 21.7711 9.32158C21.7869 9.24058 21.7983 9.15907 21.8122 9.07755L21.7946 9.06367L7.46475 15.1112L7.89236 15.255C9.03043 15.6385 10.1688 16.022 11.3075 16.4055C11.3307 16.4117 11.3555 16.4084 11.3763 16.3964C11.6237 16.2454 11.8695 16.092 12.1159 15.9391L15.6305 13.7569C16.8636 12.9899 18.0974 12.2246 19.3317 11.4611C19.411 11.4191 19.4961 11.3891 19.5843 11.372C19.6431 11.3566 19.7105 11.3652 19.7387 11.4295C19.7717 11.5057 19.7943 11.59 19.7287 11.6634C19.6632 11.7368 19.5939 11.8144 19.5201 11.8834C19.0304 12.3427 18.5399 12.8008 18.0489 13.2578L15.6229 15.5254C14.833 16.2626 14.0434 17.0005 13.2543 17.7387C13.2297 17.7624 13.2129 17.793 13.2064 17.8265C13.1418 18.2239 13.0802 18.6218 13.0179 19.0191C12.9357 19.5475 12.8535 20.0756 12.7716 20.6036C12.7553 20.7086 12.7395 20.8141 12.7238 20.919L12.7372 20.9252L15.0723 18.7915Z" fill="#FCFCFC"/>
</svg>

<svg width="31" height="30" viewBox="0 0 31 30" fill="none" xmlns="http://www.w3.org/2000/svg"><path d="M15.147 20.514c-.191.174-.383.347-.571.52-.44.402-.874.813-1.325 1.203-.256.221-.568.276-.904.206-.344-.071-.54-.31-.692-.598-.139-.264-.216-.55-.303-.834l-.925-3.02c-.048-.162-.101-.323-.148-.485a.104.104 0 00-.076-.078 409.13 409.13 0 01-2.768-.932 5.485 5.485 0 01-.6-.228c-.29-.13-.53-.349-.686-.625a1.11 1.11 0 01.258-1.416 2.1 2.1 0 01.574-.346l2.552-1.076 3.758-1.586 5.054-2.135c.964-.406 1.93-.81 2.895-1.213.24-.108.502-.161.766-.156a1.19 1.19 0 011.102.927c.06.268.035.533-.017.799-.11.556-.218 1.113-.326 1.67l-.321 1.65-.404 2.072-.366 1.87c-.13.664-.258 1.328-.386 1.994l-.444 2.271c-.072.367-.141.734-.216 1.1-.04.195-.151.355-.272.507-.363.457-.849.613-1.41.557-.164-.016-.323-.076-.484-.118-.119-.03-.206-.114-.3-.186l-2.975-2.288a.746.746 0 01-.04-.026zm-.075-1.723l.06.045 1.662 1.277 2.125 1.63a.595.595 0 00.227.094c.1.022.197-.06.217-.164a2738.61 2738.61 0 01.803-4.11l.564-2.901.44-2.246.601-3.094c.016-.081.027-.163.041-.244l-.017-.014-14.33 6.047.427.144 3.415 1.15a.09.09 0 00.07-.009c.247-.15.492-.304.739-.457l3.514-2.182c1.234-.767 2.467-1.532 3.702-2.296a.91.91 0 01.252-.089c.06-.015.127-.007.155.058.033.076.055.16-.01.233a3.387 3.387 0 01-.209.22c-.49.46-.98.918-1.471 1.375l-2.426 2.267c-.79.738-1.58 1.475-2.369 2.214a.166.166 0 00-.048.087c-.064.398-.126.796-.188 1.193l-.246 1.585-.048.315.013.006 2.335-2.134z" fill="#FCFCFC"/></svg>
